X:547
T:King Herod And The Cock
Z:Jack Campin, http://www.campin.me.uk/
F:Jack Campin's Nine-Note Tunebook
% last edit 03-02-2013
N:trad. English Christmas carol; arr. Jerome Epstein
V:1
V:2
V:3 transpose -12
M:C
L:1/4
Q:1/2=58
K:GMin
[V:1] D   |G G    B c|B G F D   |G G B    c|B3
[V:2] D   |G G    F F|D D D D   |G G F    F|D3
[V:3] D   |G G    B A|B G F D   |G G B    A|B3
%
[V:1] B/c/|d d/c/ d D|B2  c B/c/|d d c/B/ A|G3|]
[V:2] B/c/|d d/c/ d D|B2  c B/A/|G G F    F|D3|]
[V:3] B/c/|d d/c/ d D|B2  c B/c/|d d c/B/ A|G3|]

